X: 40208
T: Tinker's Deal, The
R: reel
M: 4/4
K: Amajor
agag agag|agae fedc|dfBc dfBc|dcde fefg|
agag agag|agae fedc|defd edcd|1 B3c A4:|2 B3c Aeed||
|:ceAB ceAA|cAce fedc|dfBc dfBc|dcde fedB|
ceAB ceAA|cAce fedc|defd edcd|~B3c A4:|

